;FLAVOR:Marlin
;TIME:2926
;Filament used: 1.63214m
;Layer height: 0.2
;MINX:33.153
;MINY:158.76
;MINZ:0.2
;MAXX:77.185
;MAXY:182.205
;MAXZ:20
;Generated with Cura_SteamEngine 4.4.1
M104 S190
M105
M109 S190
M82 ;absolute extrusion mode
M201 X500.00 Y500.00 Z100.00 E5000.00 ;Setup machine max acceleration
M203 X500.00 Y500.00 Z10.00 E50.00 ;Setup machine max feedrate
M204 P500.00 R1000.00 T500.00 ;Setup Print/Retract/Travel acceleration
M205 X8.00 Y8.00 Z0.40 E5.00 ;Setup Jerk
M220 S100 ;Reset Feedrate
M221 S100 ;Reset Flowrate

G28 ;Home

G92 E0 ;Reset Extruder
G1 Z2.0 F3000 ;Move Z Axis up
G1 X10.1 Y20 Z0.28 F5000.0 ;Move to start position
G1 X10.1 Y200.0 Z0.28 F1500.0 E15 ;Draw the first line
G1 X10.4 Y200.0 Z0.28 F5000.0 ;Move to side a little
G1 X10.4 Y20 Z0.28 F1500.0 E30 ;Draw the second line
G92 E0 ;Reset Extruder
G1 Z2.0 F3000 ;Move Z Axis up

G92 E0
G92 E0
G1 F1500 E-6.5
;LAYER_COUNT:100
;LAYER:0
M107
;MESH:Lampenclip.stl(1)
G0 F6000 X47.353 Y181.805 Z0.2
;TYPE:WALL-INNER
G1 F1500 E0
G1 F1200 X33.553 Y181.805 E0.45899
G1 X33.553 Y179.025 E0.55145
G1 X43.553 Y179.004 E0.88406
G1 X43.553 Y166.805 E1.2898
G1 X40.469 Y166.805 E1.39237
G1 X40.331 Y167.517 E1.41649
G1 X40.269 Y167.638 E1.42101
G1 X40.185 Y167.722 E1.42496
G1 X40.076 Y167.778 E1.42904
G1 X39.953 Y167.797 E1.43318
G1 X39.83 Y167.778 E1.43732
G1 X39.721 Y167.722 E1.4414
G1 X39.636 Y167.637 E1.44539
G1 X39.58 Y167.528 E1.44947
G1 X39.47 Y166.814 E1.4735
G1 X38.558 Y166.808 E1.50383
G1 X38.554 Y164.024 E1.59643
G1 X46.553 Y164.003 E1.86248
G1 X46.553 Y160.02 E1.99495
G1 X47.141 Y160.013 E2.01451
G1 X47.342 Y160.011 E2.0212
G1 X47.342 Y160.212 E2.02551
G1 X47.353 Y168.464 E2.29997
G1 X47.353 Y168.663 E2.30659
G1 X47.154 Y168.663 E2.31087
G1 X46.407 Y168.663 E2.33572
G1 X46.112 Y168.708 E2.34565
G1 X45.802 Y168.866 E2.35722
G1 X45.556 Y169.112 E2.36879
G1 X45.398 Y169.422 E2.38036
G1 X45.346 Y169.763 E2.39183
G1 X45.398 Y170.103 E2.40327
G1 X45.556 Y170.413 E2.41485
G1 X45.802 Y170.659 E2.42642
G1 X46.112 Y170.817 E2.43799
G1 X46.401 Y170.861 E2.44771
G1 X47.353 Y170.862 E2.47938
G1 X47.353 Y181.805 E2.84334
G0 F6000 X47.753 Y182.205
;TYPE:WALL-OUTER
G1 F1200 X33.153 Y182.205 E3.32894
G1 X33.153 Y178.626 E3.44798
G1 X43.153 Y178.605 E3.78058
G1 X43.153 Y167.205 E4.15975
G1 X40.799 Y167.205 E4.23804
G1 X40.713 Y167.648 E4.25305
G1 X40.597 Y167.876 E4.26156
G1 X40.424 Y168.049 E4.2697
G1 X40.201 Y168.163 E4.27803
G1 X39.953 Y168.202 E4.28638
G1 X39.705 Y168.163 E4.29473
G1 X39.482 Y168.049 E4.30306
G1 X39.309 Y167.876 E4.31119
G1 X39.195 Y167.653 E4.31952
G1 X39.127 Y167.212 E4.33436
G1 X38.159 Y167.206 E4.36656
G1 X38.153 Y163.625 E4.48567
G1 X46.153 Y163.604 E4.75175
G1 X46.153 Y159.624 E4.88412
G1 X47.742 Y159.607 E4.93698
G1 X47.753 Y169.063 E5.25148
G1 X46.438 Y169.063 E5.29522
G1 X46.236 Y169.094 E5.30202
G1 X46.04 Y169.194 E5.30934
G1 X45.884 Y169.35 E5.31667
G1 X45.784 Y169.546 E5.32399
G1 X45.751 Y169.763 E5.33129
G1 X45.784 Y169.979 E5.33856
G1 X45.884 Y170.175 E5.34588
G1 X46.04 Y170.331 E5.35322
G1 X46.236 Y170.431 E5.36054
G1 X46.432 Y170.461 E5.36713
G1 X47.753 Y170.463 E5.41107
G1 X47.753 Y182.205 E5.80161
G0 F6000 X47.483 Y181.935
G0 X47.243 Y181.415
G0 X46.963 Y181.415
;TYPE:SKIN
G1 F1200 X33.943 Y181.415 E6.23465
G1 X33.943 Y179.415 E6.30118
G1 X43.943 Y179.394 E6.63378
G1 X43.943 Y166.415 E7.06546
G1 X40.147 Y166.415 E7.19172
G1 X39.959 Y167.388 E7.22468
G1 X39.955 Y167.397 E7.225
G1 X39.805 Y166.426 E7.25768
G1 X38.948 Y166.42 E7.28619
G1 X38.944 Y164.413 E7.35294
G1 X46.943 Y164.392 E7.61899
G1 X46.943 Y160.406 E7.75156
G1 X46.952 Y160.405 E7.75187
G1 X46.963 Y168.273 E8.01356
G1 X46.378 Y168.273 E8.03301
G1 X45.991 Y168.332 E8.04603
G1 X45.57 Y168.546 E8.06174
G1 X45.236 Y168.88 E8.07745
G1 X45.022 Y169.301 E8.09316
G1 X44.952 Y169.763 E8.1087
G1 X45.022 Y170.224 E8.12421
G1 X45.236 Y170.645 E8.13992
G1 X45.57 Y170.979 E8.15563
G1 X45.991 Y171.193 E8.17134
G1 X46.372 Y171.251 E8.18415
G1 X46.963 Y171.252 E8.20381
G1 X46.963 Y181.415 E8.54183
G0 F6000 X47.243 Y181.415
G0 X47.179 Y181.602
G0 X34.175 Y181.695
G0 X34.175 Y181.254
G1 F1200 X34.103 Y181.181 E8.54524
G0 F6000 X34.103 Y180.615
G1 F1200 X34.741 Y181.254 E8.57528
G0 F6000 X35.307 Y181.254
G1 F1200 X34.103 Y180.049 E8.63193
G0 F6000 X34.193 Y179.574
G1 F1200 X35.872 Y181.254 E8.71093
G0 F6000 X36.438 Y181.254
G1 F1200 X34.758 Y179.574 E8.78995
G0 F6000 X35.322 Y179.572
G1 F1200 X37.004 Y181.254 E8.86907
G0 F6000 X37.569 Y181.254
G1 F1200 X35.887 Y179.571 E8.94821
G0 F6000 X36.451 Y179.569
G1 F1200 X38.135 Y181.254 E9.02744
G0 F6000 X38.701 Y181.254
G1 F1200 X37.016 Y179.569 E9.1067
G0 F6000 X37.58 Y179.567
G1 F1200 X39.267 Y181.254 E9.18605
G0 F6000 X39.832 Y181.254
G1 F1200 X38.144 Y179.566 E9.26545
G0 F6000 X38.709 Y179.565
G1 F1200 X40.398 Y181.254 E9.3449
G0 F6000 X40.964 Y181.254
G1 F1200 X39.274 Y179.564 E9.42439
G0 F6000 X39.838 Y179.562
G1 F1200 X41.529 Y181.254 E9.50395
G0 F6000 X42.095 Y181.254
G1 F1200 X40.403 Y179.561 E9.58356
G0 F6000 X40.967 Y179.56
G1 F1200 X42.661 Y181.254 E9.66324
G0 F6000 X43.226 Y181.254
G1 F1200 X41.531 Y179.559 E9.74297
G0 F6000 X42.096 Y179.558
G1 F1200 X43.792 Y181.254 E9.82274
G0 F6000 X44.358 Y181.254
G1 F1200 X42.661 Y179.557 E9.90257
G0 F6000 X43.225 Y179.555
G1 F1200 X44.923 Y181.254 E9.98246
G0 F6000 X45.489 Y181.254
G1 F1200 X43.789 Y179.554 E10.06242
G0 F6000 X44.102 Y179.301
G1 F1200 X46.055 Y181.254 E10.15428
G0 F6000 X46.62 Y181.254
G1 F1200 X44.102 Y178.736 E10.27272
G0 F6000 X44.102 Y178.17
G1 F1200 X46.803 Y180.87 E10.39975
G0 F6000 X46.803 Y180.305
G1 F1200 X44.102 Y177.604 E10.52679
G0 F6000 X44.102 Y177.039
G1 F1200 X46.803 Y179.739 E10.65382
G0 F6000 X46.803 Y179.173
G1 F1200 X44.102 Y176.473 E10.78084
G0 F6000 X44.102 Y175.907
G1 F1200 X46.803 Y178.608 E10.90789
G0 F6000 X46.803 Y178.042
G1 F1200 X44.102 Y175.341 E11.03493
G0 F6000 X44.102 Y174.776
G1 F1200 X46.803 Y177.476 E11.16196
G0 F6000 X46.803 Y176.911
G1 F1200 X44.102 Y174.21 E11.289
G0 F6000 X44.102 Y173.644
G1 F1200 X46.803 Y176.345 E11.41605
G0 F6000 X46.803 Y175.779
G1 F1200 X44.102 Y173.079 E11.54307
G0 F6000 X44.102 Y172.513
G1 F1200 X46.803 Y175.213 E11.6701
G0 F6000 X46.803 Y174.648
G1 F1200 X44.102 Y171.947 E11.79714
G0 F6000 X44.102 Y171.382
G1 F1200 X46.803 Y174.082 E11.92417
G0 F6000 X46.803 Y173.516
G1 F1200 X44.102 Y170.816 E12.05119
G0 F6000 X44.102 Y170.25
G1 F1200 X46.803 Y172.951 E12.17824
G0 F6000 X46.803 Y172.385
G1 F1200 X45.582 Y171.164 E12.23567
G0 F6000 X45.05 Y170.632
G1 F1200 X44.102 Y169.685 E12.28024
G0 F6000 X44.102 Y169.119
G1 F1200 X44.799 Y169.815 E12.313
G0 F6000 X44.858 Y169.309
G1 F1200 X44.102 Y168.553 E12.34856
G0 F6000 X44.102 Y167.988
G1 F1200 X45.035 Y168.92 E12.39242
G0 F6000 X45.284 Y168.603
G1 F1200 X44.102 Y167.422 E12.44799
G0 F6000 X44.102 Y166.856
G1 F1200 X45.597 Y168.351 E12.51831
G0 F6000 X45.982 Y168.17
G1 F1200 X44.102 Y166.291 E12.60672
G0 F6000 X44.066 Y166.254
G1 F1200 X42.375 Y164.563 E12.68626
G0 F6000 X41.811 Y164.564
G1 F1200 X43.5 Y166.254 E12.76573
G0 F6000 X42.934 Y166.254
G1 F1200 X41.246 Y164.566 E12.84513
G0 F6000 X40.682 Y164.567
G1 F1200 X42.369 Y166.254 E12.92448
G0 F6000 X41.803 Y166.254
G1 F1200 X40.118 Y164.569 E13.00373
G0 F6000 X39.554 Y164.57
G1 F1200 X41.237 Y166.254 E13.08292
G0 F6000 X40.672 Y166.254
G1 F1200 X39.103 Y164.685 E13.15672
G0 F6000 X39.105 Y165.252
G1 F1200 X40.106 Y166.254 E13.20383
G0 F6000 X39.549 Y166.262
G1 F1200 X39.106 Y165.82 E13.22464
G0 F6000 X38.666 Y165.82
G0 X38.736 Y164.205
G0 X42.939 Y164.122
G0 X42.939 Y164.562
G1 F1200 X46.49 Y168.112 E13.39165
G0 F6000 X46.802 Y167.859
G1 F1200 X43.503 Y164.56 E13.54682
G0 F6000 X44.067 Y164.558
G1 F1200 X46.801 Y167.292 E13.67542
G0 F6000 X46.801 Y166.726
G1 F1200 X44.631 Y164.557 E13.77747
G0 F6000 X45.196 Y164.555
G1 F1200 X46.8 Y166.16 E13.85294
G0 F6000 X46.799 Y165.593
G1 F1200 X45.76 Y164.554 E13.90181
G0 F6000 X46.324 Y164.552
G1 F1200 X46.799 Y165.027 E13.92415
G0 F6000 X47.239 Y165.027
G0 X47.171 Y168.481
G0 X45.898 Y168.998
G0 X45.688 Y169.208
G0 X45.553 Y169.472
G0 X45.509 Y169.763
G0 X45.553 Y170.053
G0 X45.628 Y170.202
G0 X46.395 Y170.972
G0 X46.394 Y171.411
G1 F1200 X46.803 Y171.819 E13.94337
G0 F6000 X47.153 Y171.819
G1 F1500 E7.44337
;MESH:Lampenclip.stl
G0 F6000 X47.243 Y171.819
G0 X47.533 Y180.96
G0 X48.618 Y180.96
G0 X61.72 Y180.96
G0 X62.805 Y180.96
G0 X76.785 Y180.96
;TYPE:WALL-INNER
G1 F1500 E13.94337
G1 F1200 X62.985 Y180.96 E14.40236
G1 X62.985 Y178.18 E14.49482
G1 X72.985 Y178.159 E14.82742
G1 X72.985 Y165.96 E15.23316
G1 X69.901 Y165.96 E15.33574
G1 X69.763 Y166.672 E15.35986
G1 X69.701 Y166.793 E15.36438
G1 X69.617 Y166.877 E15.36833
G1 X69.508 Y166.933 E15.37241
G1 X69.385 Y166.952 E15.37655
G1 X69.262 Y166.933 E15.38069
G1 X69.153 Y166.877 E15.38476
G1 X69.068 Y166.792 E15.38876
G1 X69.012 Y166.683 E15.39284
G1 X68.902 Y165.969 E15.41686
G1 X67.99 Y165.963 E15.4472
G1 X67.986 Y163.179 E15.53979
G1 X75.985 Y163.158 E15.80584
G1 X75.985 Y159.175 E15.93832
G1 X76.573 Y159.168 E15.95788
G1 X76.774 Y159.166 E15.96456
G1 X76.774 Y159.367 E15.96888
G1 X76.785 Y167.619 E16.24334
G1 X76.785 Y167.818 E16.24996
G1 X76.586 Y167.818 E16.25424
G1 X75.839 Y167.818 E16.27909
G1 X75.544 Y167.863 E16.28901
G1 X75.234 Y168.021 E16.30059
G1 X74.988 Y168.267 E16.31216
G1 X74.83 Y168.577 E16.32373
G1 X74.778 Y168.918 E16.3352
G1 X74.83 Y169.258 E16.34664
G1 X74.988 Y169.569 E16.35824
G1 X75.234 Y169.814 E16.36979
G1 X75.544 Y169.972 E16.38136
G1 X75.833 Y170.016 E16.39109
G1 X76.785 Y170.017 E16.42275
G1 X76.785 Y180.96 E16.78672
G0 F6000 X77.185 Y181.36
;TYPE:WALL-OUTER
G1 F1200 X62.585 Y181.36 E17.27231
G1 X62.585 Y177.781 E17.39135
G1 X72.585 Y177.76 E17.72395
G1 X72.585 Y166.36 E18.10312
G1 X70.231 Y166.36 E18.18141
G1 X70.145 Y166.803 E18.19642
G1 X70.029 Y167.031 E18.20493
G1 X69.856 Y167.204 E18.21307
G1 X69.633 Y167.318 E18.2214
G1 X69.385 Y167.357 E18.22975
G1 X69.137 Y167.318 E18.2381
G1 X68.914 Y167.204 E18.24643
G1 X68.741 Y167.031 E18.25457
G1 X68.627 Y166.808 E18.2629
G1 X68.559 Y166.367 E18.27774
G1 X67.591 Y166.361 E18.30993
G1 X67.585 Y162.78 E18.42904
G1 X75.585 Y162.759 E18.69512
G1 X75.585 Y158.779 E18.8275
G1 X77.174 Y158.762 E18.88035
G1 X77.185 Y168.218 E19.19486
G1 X75.87 Y168.218 E19.23859
G1 X75.668 Y168.249 E19.24539
G1 X75.472 Y168.349 E19.25271
G1 X75.316 Y168.505 E19.26005
G1 X75.216 Y168.701 E19.26737
G1 X75.183 Y168.918 E19.27467
G1 X75.216 Y169.134 E19.28193
G1 X75.316 Y169.331 E19.28928
G1 X75.472 Y169.486 E19.2966
G1 X75.668 Y169.586 E19.30392
G1 X75.864 Y169.616 E19.31051
G1 X77.185 Y169.618 E19.35445
G1 X77.185 Y181.36 E19.74499
G0 F6000 X76.915 Y181.09
G0 X76.675 Y180.57
G0 X76.395 Y180.57
;TYPE:SKIN
G1 F1200 X63.375 Y180.57 E20.17803
G1 X63.375 Y178.57 E20.24455
G1 X73.375 Y178.549 E20.57716
G1 X73.375 Y165.57 E21.00884
G1 X69.579 Y165.57 E21.1351
G1 X69.391 Y166.543 E21.16806
G1 X69.387 Y166.552 E21.16838
G1 X69.237 Y165.581 E21.20106
G1 X68.38 Y165.575 E21.22957
G1 X68.376 Y163.568 E21.29632
G1 X76.375 Y163.547 E21.56237
G1 X76.375 Y159.561 E21.69494
G1 X76.384 Y159.56 E21.69524
G1 X76.395 Y167.428 E21.95694
G1 X75.81 Y167.428 E21.97639
G1 X75.423 Y167.487 E21.98941
G1 X75.002 Y167.701 E22.00512
G1 X74.668 Y168.035 E22.02083
G1 X74.454 Y168.456 E22.03654
G1 X74.384 Y168.918 E22.05208
G1 X74.454 Y169.379 E22.06759
G1 X74.668 Y169.801 E22.08333
G1 X75.002 Y170.134 E22.09901
G1 X75.423 Y170.348 E22.11472
G1 X75.804 Y170.406 E22.12754
G1 X76.395 Y170.407 E22.1472
G1 X76.395 Y180.57 E22.48522
G0 F6000 X76.675 Y180.57
G0 X76.611 Y180.757
G0 X63.877 Y180.85
G0 X63.877 Y180.409
G1 F1200 X63.534 Y180.066 E22.50135
G0 F6000 X63.534 Y179.5
G1 F1200 X64.443 Y180.409 E22.54411
G0 F6000 X65.009 Y180.409
G1 F1200 X63.534 Y178.934 E22.61349
G0 F6000 X63.894 Y178.729
G1 F1200 X65.574 Y180.409 E22.69251
G0 F6000 X66.14 Y180.409
G1 F1200 X64.459 Y178.728 E22.77158
G0 F6000 X65.024 Y178.726
G1 F1200 X66.706 Y180.409 E22.85072
G0 F6000 X67.272 Y180.409
G1 F1200 X65.588 Y178.725 E22.92993
G0 F6000 X66.153 Y178.724
G1 F1200 X67.837 Y180.409 E23.00916
G0 F6000 X68.403 Y180.409
G1 F1200 X66.717 Y178.723 E23.08847
G0 F6000 X67.281 Y178.721
G1 F1200 X68.969 Y180.409 E23.16787
G0 F6000 X69.534 Y180.409
G1 F1200 X67.846 Y178.721 E23.24726
G0 F6000 X68.411 Y178.719
G1 F1200 X70.1 Y180.409 E23.32673
G0 F6000 X70.666 Y180.409
G1 F1200 X68.975 Y178.718 E23.40627
G0 F6000 X69.539 Y178.716
G1 F1200 X71.231 Y180.409 E23.48588
G0 F6000 X71.797 Y180.409
G1 F1200 X70.104 Y178.716 E23.56552
G0 F6000 X70.668 Y178.714
G1 F1200 X72.363 Y180.409 E23.64524
G0 F6000 X72.928 Y180.409
G1 F1200 X71.233 Y178.713 E23.72499
G0 F6000 X71.798 Y178.712
G1 F1200 X73.494 Y180.409 E23.80479
G0 F6000 X74.06 Y180.409
G1 F1200 X72.362 Y178.711 E23.88466
G0 F6000 X72.926 Y178.709
G1 F1200 X74.625 Y180.409 E23.9646
G0 F6000 X75.191 Y180.409
G1 F1200 X73.491 Y178.709 E24.04456
G0 F6000 X73.534 Y178.186
G1 F1200 X75.757 Y180.409 E24.14913
G0 F6000 X76.235 Y180.321
G1 F1200 X73.534 Y177.62 E24.27617
G0 F6000 X73.534 Y177.055
G1 F1200 X76.235 Y179.755 E24.4032
G0 F6000 X76.235 Y179.19
G1 F1200 X73.534 Y176.489 E24.53024
G0 F6000 X73.534 Y175.923
G1 F1200 X76.235 Y178.624 E24.65729
G0 F6000 X76.235 Y178.058
G1 F1200 X73.534 Y175.358 E24.78431
G0 F6000 X73.534 Y174.792
G1 F1200 X76.235 Y177.492 E24.91134
G0 F6000 X76.235 Y176.927
G1 F1200 X73.534 Y174.226 E25.03838
G0 F6000 X73.534 Y173.661
G1 F1200 X76.235 Y176.361 E25.16541
G0 F6000 X76.235 Y175.795
G1 F1200 X73.534 Y173.095 E25.29243
G0 F6000 X73.534 Y172.529
G1 F1200 X76.235 Y175.23 E25.41948
G0 F6000 X76.235 Y174.664
G1 F1200 X73.534 Y171.964 E25.5465
G0 F6000 X73.534 Y171.398
G1 F1200 X76.235 Y174.098 E25.67352
G0 F6000 X76.235 Y173.533
G1 F1200 X73.534 Y170.832 E25.80057
G0 F6000 X73.534 Y170.267
G1 F1200 X76.235 Y172.967 E25.92759
G0 F6000 X76.235 Y172.401
G1 F1200 X73.534 Y169.701 E26.05462
G0 F6000 X73.534 Y169.135
G1 F1200 X76.235 Y171.836 E26.18166
G0 F6000 X76.235 Y171.27
G1 F1200 X75.482 Y170.518 E26.21706
G0 F6000 X76.096 Y170.566
G1 F1200 X76.235 Y170.704 E26.22357
G0 F6000 X76.675 Y170.704
G0 X76.603 Y170.199
G0 X76.115 Y170.199
G0 X74.719 Y169.252
G0 X74.283 Y169.318
G1 F1200 X73.534 Y168.57 E26.25878
G0 F6000 X73.534 Y168.004
G1 F1200 X74.252 Y168.722 E26.29255
G0 F6000 X74.368 Y168.272
G1 F1200 X73.534 Y167.438 E26.33178
G0 F6000 X73.534 Y166.872
G1 F1200 X74.568 Y167.906 E26.38042
G0 F6000 X74.851 Y167.623
G1 F1200 X73.534 Y166.307 E26.44234
G0 F6000 X73.534 Y165.741
G1 F1200 X75.208 Y167.415 E26.52108
G0 F6000 X75.649 Y167.29
G1 F1200 X72.076 Y163.717 E26.68915
G0 F6000 X71.512 Y163.719
G1 F1200 X73.202 Y165.409 E26.76864
G0 F6000 X72.636 Y165.409
G1 F1200 X70.948 Y163.72 E26.84806
G0 F6000 X70.383 Y163.722
G1 F1200 X72.071 Y165.409 E26.92743
G0 F6000 X71.505 Y165.409
G1 F1200 X69.819 Y163.723 E27.00674
G0 F6000 X69.255 Y163.724
G1 F1200 X70.939 Y165.409 E27.08597
G0 F6000 X70.374 Y165.409
G1 F1200 X68.691 Y163.726 E27.16514
G0 F6000 X68.536 Y164.137
G1 F1200 X69.808 Y165.409 E27.22497
G0 F6000 X69.253 Y165.419
G1 F1200 X68.537 Y164.704 E27.25862
G0 F6000 X68.539 Y165.271
G1 F1200 X68.683 Y165.415 E27.26539
G0 F6000 X68.68 Y165.857
G0 X68.172 Y165.782
G0 X68.168 Y163.36
G0 X72.641 Y163.276
G0 X72.641 Y163.716
G1 F1200 X76.191 Y167.266 E27.43238
G0 F6000 X76.234 Y166.744
G1 F1200 X73.205 Y163.715 E27.57485
G0 F6000 X73.768 Y163.712
G1 F1200 X76.233 Y166.177 E27.6908
G0 F6000 X76.233 Y165.611
G1 F1200 X74.333 Y163.711 E27.78017
G0 F6000 X74.897 Y163.71
G1 F1200 X76.232 Y165.045 E27.84296
G0 F6000 X76.231 Y164.478
G1 F1200 X75.461 Y163.708 E27.87918
G0 F6000 X76.025 Y163.707
G1 F1200 X76.231 Y163.912 E27.88885
G0 F6000 X76.58 Y163.911
G1 F1500 E21.38885
;MESH:NONMESH
G0 F300 X76.58 Y163.911 Z0.4
G0 F6000 X76.671 Y163.912
G0 X76.603 Y167.636
G0 X75.33 Y168.153
G0 X75.12 Y168.363
G0 X74.985 Y168.627
G0 X74.941 Y168.918
G0 X75.132 Y169.954
G0 X76.603 Y170.199
G0 X76.603 Y180.778
G0 X63.167 Y180.778
G0 X63.167 Y178.362
G0 X72.799 Y177.974
G0 X71.732 Y176.908
G0 X61.732 Y176.929
G0 X48.618 Y177.974
G0 X47.533 Y177.974
G0 X47.353 Y181.805
